X:1
T:Prins Jørgens March
T:Prins Jørgens March
%%score 1 2 3
L:1/8
Q:1/4=114
M:4/4
K:Bb
V:1 treble transpose=-9 nm="Alto Saxophone" snm="A. Sax."
V:2 treble transpose=-2 nm="B♭ Trumpet" snm="B♭ Tpt."
V:3 bass nm="Bass Trombone" snm="B. Trb."
V:1
[K:G]!f!!mp! B4{/g} !trill(!Tf2 fe/f/ | g3 g g2 f2 | d2 f2 g2 fd | f2 A2 !tenuto!.A2 !tenuto!A2 | %4
 d4{/g} !trill(!Tf2 fe/f/ | g3 g g2 f2 | d2 e2 d2 c2 | B6 z2 :|!f! d2 gf ae^cA | F2 FG Adfc | %10
 g2 d2 d2 B2 | d2 B2 G2 B2 | d2 gf ae^cA | A2 de f2 f2 | g2 d2 d2 B2 | A2 fe de d/c/B/A/ |: %16
!f!!mp! B4{/g} !trill(!Tf2 fe/f/ | g3 g g2 f2 | d2 f2 g2 fd | f2 A2 !tenuto!.A2 !tenuto!A2 | %20
 B4{/g} !trill(!Tf2 fe/f/ | g3 g g2 f2 | d2 e2 d2 c2 | B6 z2 :|!f! B2 GA B4 | B2 GA B4 | %26
 B2 ga b2 d'2 | a6 f2 | f2 de f2 g2 | f2 de f2 g2 | d2 B2 G2 A2 | F6 z2 | B2 GA B2 B2 | %33
 B2 GA B2 B2 | B2 ga b2 d'2 |{/b} !trill(!Ta6 d2 | d6 d2- | d6 d2- | d4 dG A2 |!>(! A8!>)! | %40
!p! g4{/b} !trill(!Ta2 ag/a/ | b3 c' b2 a2 | g2 a2 b2 ag | %43
!<(! a2 d2 !tenuto!.d2!<)!!f! !tenuto!A2 | d4{/g} !trill(!Tf2 fe/f/ | g3 a g2 f2 | d2 e2 d2 c2 | %47
 B6 z2 |]!p!"^Efterspil"[Q:1/4=130] d z z2 z4 | d z z2 z4 | d z z2 z4 | .d.d.g.g .d2 B2 |: %52
!<(! d z z2 z4 | d z z2 z4 | g z z2 a/b/a/g/ f/e/d | .d.d.g.g !tenuto!.d2 B2!<)! :| %56
V:2
[K:C]!f!!mp! c4{/e} !trill(!Td2 dc/d/ | e3 f e2 d2 | c2 d2 e2 dc | d2 G2 !tenuto!.G2 !tenuto!G2 | %4
 c4{/e} !trill(!Td2 dc/d/ | e3 f e2 d2 | cdcd{/e} !trill(!Td2 dc/d/ | c6 z2 :| %8
!f! e4{/g} !trill(!T^f2 fe/f/ | g3 a g2 f2 | e2 c2 c2 G2 | c2 G2 E2 C2 | %12
 e4{/g} !trill(!T^f2 fe/f/ | g3 a g2 f2 | e2 dc cdef | d6 z2 |:!f!!mp! c4{/e} !trill(!Td2 dc/d/ | %17
 e3 f e2 d2 | c2 d2 e2 dc | d2 G2 !tenuto!.G2 !tenuto!G2 | c4{/e} !trill(!Td2 dc/d/ | e3 f e2 d2 | %22
 cdcd{/e} !trill(!Td2 dc/d/ | c6 z2 :|!f! G2 EF G2 c2 | G2 EF G2 c2 | G2 EF G2 c2 | %27
{/c} !trill(!TB7/2 A/4B/4 c/B/A G2 | d2 Bc d2 e2 | d2 Bc d2 e2 | d2 cB{/B} !trill(!TA2 AG/A/ | %31
 G6 z2 | G2 EF G2 c2 | G2 EF G2 c2 | G2 EF G2 c2 |!<(! G2- G!<)!G/G/ .G.G.G.G | d2 Bc d2 e2 | %37
 d2 Bc d2 e2 | d2 cB{B} (!trill(!TA2 A)G/A/ |!>(! G8!>)! | z8 | z8 | z8 | %43
!p!!<(! G6!<)!!f! !tenuto!G2 | c4{/e} !trill(!Td2 dc/d/ | e3 f e2 d2 | cdcd{/e} !trill(!Td2 dc | %47
 c6 z2 |]!p! .c.G .ce/d/ .cG/F/ .E.C | .e.c .ee/f/ .gf/e/ !>!d2 | .c.G .ce/d/ .cG/F/ .E.C | %51
 e/f/e/f/ !^!gf/e/ !tenuto!.d2 c2 |:!<(! .d.G .dd/e/ d/c/B/c/ .d.G | .c.G .cc/d/ e/f/e/f/ g2 | %54
 g/a/g/f/ e/d/c z4 | c/d/c/d/ e/g/f/e/ !tenuto!.d2 c2!<)! :| %56
V:3
!f!!mp! B,,,2 B,,2 A,,2 F,,2 | B,,2 F,,2 B,,2 C,,2 | D,,2 C,,2 B,,,2 D,,2 | F,,6 E,,2 | %4
 D,,2 B,,2 A,,2 F,,2 | B,,2 F,,2 B,,2 C,,2 | D,,2 E,,2 F,,2 A,,B,, | B,,2 F,,2 B,,,2 z2 :| %8
!f! B,,2 F,,2 C,,2 G,,2 | F,,2 C,,2 F,,C,,F,,A,, | B,,2 D,2 D,2 B,,2 | D,2 B,,2 F,,2 F,,2 | %12
 B,,2 F,,2 C,,2 G,,2 | F,,2 C,,2 A,,F,,C,,F,, | B,,2 F,,F,, F,,2 B,,,2 | %15
 F,,2 F,,G,, F,,E,,D,,C,, |:!f!!mp! B,,,2 B,,2 A,,2 F,,2 | B,,2 F,,2 B,,2 C,,2 | %18
 D,,2 C,,2 B,,,2 D,,2 | F,,6 E,,2 | D,,2 B,,2 A,,2 F,,2 | B,,2 F,,2 B,,2 C,,2 | %22
 D,,2 E,,2 F,,2 A,,B,, | B,,2 F,,2 B,,,2 z2 :|!f! B,,,6 z2 | B,,,6 z2 | B,,,6 z2 | %27
 A,,2 F,,2 .C,,2 C,,2 | F,,6 z2 | F,,6 z2 | C,2 B,,2 G,,2 =E,,F,, | C,,2 F,,G,, F,,E,,D,,C,, | %32
 B,,,4 B,,4 | B,,,4 B,,4 | B,,,4 B,,3 E,, | F,,4 F,4 | F,,4 A,,4 | F,,4 C,4 | F,2 D,2 B,,2 C,2 | %39
!>(! A,,8!>)! |!p! B,,,2 B,,2 A,,2 F,,2 | B,,2 F,,2 B,,2 C,,2 | D,,2 C,,2 B,,,2 D,,2 | %43
!<(! F,,6!<)!!f! E,,2 | D,,2 B,,2 A,,2 F,,2 | B,,2 F,,2 B,,2 C,,2 | D,,2 E,,2 F,,2 A,,B,, | %47
 B,,2 F,,2 B,,,2 z2 |]!p! B,,, z z2 z4 | B,,, z z2 z4 | B,,, z z2 z4 | %51
 .F,,.F,,.B,,.B,, .F,,2 F,,2 |:!<(! A,,, z z2 z4 | B,,, z z2 z4 | B,,, z z2 z4 | %55
 .F,,.F,,.B,,.B,, .F,,2 B,,2!<)! :| %56

